!!!OTL: Aus der Ferne.
!!!OTL-incipit: AM STILLEN HAIN IM MONDENSCHEIN
!!!COM: F. Otto
!!!ARE: Europa, Mitteleuropa, Deutschland
!!!SCT: F0934
!!!TXL: @@DE
!!!YEM: Copyright 1995, estate of Helmut Schaffrath.
**kern	**text
*ICvox	*
*clefG2	*
*M3/4	*
*k[b-e-a-d-]	*
*A-:	*
!LO:TX:a:t=Langſam.	!
!LO:TX:a:t=P:only the highest voice encoded:problem	!
{4e-	1._Am
=1	=1
8.cc/	ſtil-
16cc/	-len
4.cc/	Hain,
8e-	im
=2	=2
8.dd-	Mondenſchein,
16dd-	.
4.dd-}	.
{16cc	wenn
16cc	der
=3	=3
[4b-	Him-
!LO:TUP:a	!
12b-]	.
12an	-mel
12b-	ſich
!LO:TUP:a	!
12b-	rö-
12cc	-thet,
12dd-	die
=4	=4
[4ee-	Nach-
!LO:TUP:a	!
12ee-]	.
12ddn	-ti-
12ee-	-gall
*Xtuplet	*
12ee-	ſtö-
12cc	-tet,
12a-}	ge-
=5	=5
{2aa-	-denk
8gg-L	ich
8ff-J	.
=6	=6
(4.ee-	dein,
8cc)}	.
{8ee-L	ge-
8aa-J	.
=7	=7
(4aa-/	-denk
8gg/L)	.
8dd-J	.
8ff/L	ich
8ee-J	.
=8	=8
[>2.ee-/	dein
=9	=9
4ee-/]	.
4r}	.
==	==
!!!AGN: Liebes - Lied
!!!ONB: ESAC (Essen Associative Code) Database: FINK
!!!AMT: simple triple
!!!AIN: vox
!!!EED: Helmut Schaffrath
!!!EEV: 1.0
!!!GTL: Minnelieder
!!!source: Musikalischer Hausschatz der Deutschen. Eine Sammlung von über 1000 Liedern und Gesängen mit Singstimmen und Klavierbegleitung. Leipzig, Litterarisches Verlags-Haus.
!!!page: 693
!!!URL-scan: https://www.digitale-sammlungen.de/en/view/bsb11144622?page=603
!!!ENC: Anna Maria Matuszewska
!!!EEV: 2024/08/08
*-	*-